X:20802
T:Morrison's
R:Jig
B:Tuneworks Tunebook 2 (https://www.tuneworks.co.uk/)
G:Tuneworks
Z:Jon Warbrick <jon.warbrick@googlemail.com>
M:6/8
L:1/8
K:EDor
|: "Em" E3 B3 | EBE"D" AFD | "Em" E3 B2 c | "D" dcB AFD |
"Em" E3 B3 | EBE"D" AFD | "Em" G3 FGA | "D" dAG FED :|
|: "Em" Bee fee | aee fed | "Em" Bee fee |1 "D" a2 g fed |
"Em" Bee fee | aee fef | "Em" gfe d2 A | "Bm" BAG FED :|2
"D" a2 f def | "C" g3 gfe | def g2 d | "D" edc d2 A | "Bm" BAG FED |]